ui_kit/lib/assets/icons/camera.svg

<svg width="24" height="24" viewBox="0 0 24 24" fill="none" xmlns="http://www.w3.org/2000/svg">
<path fill-rule="evenodd" clip-rule="evenodd" d="M7.66944 3.23964C7.34992 2.92012 6.83187 2.92012 6.51235 3.23964C6.19283 3.55916 6.19283 4.0772 6.51235 4.39672L7.57018 5.45455H5.45455C4.80356 5.45455 4.17924 5.71315 3.71892 6.17347C3.2586 6.63378 3 7.25811 3 7.90909V16.0909C3 16.7419 3.2586 17.3662 3.71892 17.8265C4.17924 18.2869 4.80356 18.5455 5.45455 18.5455H11.1818C11.6337 18.5455 12 18.1791 12 17.7273C12 17.2754 11.6337 16.9091 11.1818 16.9091H5.45455C5.23755 16.9091 5.02944 16.8229 4.876 16.6695C4.72256 16.516 4.63636 16.3079 4.63636 16.0909V7.90909C4.63636 7.6921 4.72256 7.48399 4.876 7.33055C5.02944 7.17711 5.23755 7.09091 5.45455 7.09091H7.57017L6.51235 8.14873C6.19283 8.46825 6.19283 8.98629 6.51235 9.30581C6.83187 9.62533 7.34992 9.62533 7.66944 9.30581L10.1207 6.8545C10.1321 6.84332 10.143 6.8318 10.1537 6.81998C10.2129 6.75432 10.2595 6.68138 10.2937 6.60424C10.3387 6.50291 10.3636 6.39074 10.3636 6.27273C10.3636 6.15561 10.339 6.04423 10.2947 5.94349C10.2595 5.86332 10.2108 5.78765 10.1486 5.71991C10.1398 5.71024 10.1307 5.70078 10.1213 5.69154L7.66944 3.23964ZM12 6.27273C12 5.82086 12.3663 5.45455 12.8182 5.45455H18.5455C19.1964 5.45455 19.8208 5.71315 20.2811 6.17347C20.7414 6.63378 21 7.25811 21 7.90909V16.0909C21 16.7419 20.7414 17.3662 20.2811 17.8265C19.8208 18.2869 19.1964 18.5455 18.5455 18.5455H16.4298L17.4876 19.6033C17.8071 19.9228 17.8071 20.4408 17.4876 20.7604C17.1681 21.0799 16.6501 21.0799 16.3305 20.7604L13.876 18.3058C13.7246 18.1544 13.645 17.9585 13.637 17.7603C13.6361 17.7383 13.6361 17.7163 13.637 17.6943C13.6408 17.5986 13.661 17.5071 13.695 17.4226C13.7349 17.3229 13.7953 17.2295 13.876 17.1487L16.3305 14.6942C16.6501 14.3747 17.1681 14.3747 17.4876 14.6942C17.8071 15.0137 17.8071 15.5318 17.4876 15.8513L16.4298 16.9091H18.5455C18.7624 16.9091 18.9706 16.8229 19.124 16.6695C19.2774 16.516 19.3636 16.3079 19.3636 16.0909V7.90909C19.3636 7.6921 19.2774 7.48399 19.124 7.33055C18.9706 7.17711 18.7624 7.09091 18.5455 7.09091H12.8182C12.3663 7.09091 12 6.7246 12 6.27273ZM10.3637 12C10.3637 11.0963 11.0963 10.3636 12 10.3636C12.9038 10.3636 13.6364 11.0963 13.6364 12C13.6364 12.9037 12.9038 13.6364 12 13.6364C11.0963 13.6364 10.3637 12.9037 10.3637 12ZM12 8.72727C10.1925 8.72727 8.72729 10.1925 8.72729 12C8.72729 13.8075 10.1925 15.2727 12 15.2727C13.8075 15.2727 15.2727 13.8075 15.2727 12C15.2727 10.1925 13.8075 8.72727 12 8.72727Z" fill="white"/>
</svg>

<svg xmlns="http://www.w3.org/2000/svg" width="24" height="24" fill="none" viewBox="0 0 24 24"><path fill="#fff" fill-rule="evenodd" d="M7.67 3.24a.818.818 0 0 0-1.158 1.157L7.57 5.455H5.455A2.455 2.455 0 0 0 3 7.909v8.182a2.454 2.454 0 0 0 2.455 2.454h5.727a.818.818 0 0 0 0-1.636H5.455a.818.818 0 0 1-.819-.818V7.909a.818.818 0 0 1 .819-.818H7.57L6.512 8.149A.818.818 0 1 0 7.67 9.306l2.452-2.451a.802.802 0 0 0 .173-.25.815.815 0 0 0-.173-.913L7.67 3.24ZM12 6.273c0-.452.366-.818.818-.818h5.728A2.455 2.455 0 0 1 21 7.909v8.182a2.454 2.454 0 0 1-2.454 2.454H16.43l1.058 1.058a.818.818 0 0 1-1.157 1.157l-2.455-2.454a.815.815 0 0 1 0-1.157l2.455-2.455a.818.818 0 0 1 1.157 1.157L16.43 16.91h2.116a.818.818 0 0 0 .818-.818V7.909a.818.818 0 0 0-.819-.818h-5.727A.818.818 0 0 1 12 6.273ZM10.364 12a1.636 1.636 0 1 1 3.272 0 1.636 1.636 0 0 1-3.272 0ZM12 8.727a3.273 3.273 0 1 0 0 6.546 3.273 3.273 0 0 0 0-6.546Z" clip-rule="evenodd"/></svg>
